X:1
T:Pilgrimssang
T:Pilgrimssang
T:Dejlig er Jorden
T:Melodi fra 12te Aarhundrede arr. H. Kjerulf 
T:B. S. Ingemann
C:Melodi fra 12te Aarhundrede, arr. H. Kejerulf
Z:B. S. Ingemann
%%score [ 1 2 3 4 ]
L:1/8
Q:1/4=94
M:4/4
K:Ab
V:1 treble-8 nm="T1"
V:2 treble-8 nm="T2"
V:3 bass nm="B1"
V:4 bass nm="B2"
V:1
!p!"^Moderato" A4 A2 A2 | (B2 G2) A4 |!mf! c2 c2 c2 c2 | (d2 B2) c4 |!<(! e4!<)! (a2 f2) | %5
w: 1.Dej- lig er|Jor- * den,|præg- tig er Guds|Him- * mel,|skjøn er _|
w: 2.Ti- der skal|kom- * me,|Ti- der skal hen-|rul- * le,|Slægt skal _|
w: 3.Eng- le- ne|sang _ den|først for Mar- kens|Hyr- * der,|skjønt fra _|
 e4!>(! (d2 c2)!>)! | d4 c4 | B6 z2 |!mf! e4 f2 e2 | (e2 c2) d4 | d4 e2 d2 | (d2 B2) c2 c2 | %12
w: Sjæ- le- nes|Pil- grims-|gang!|Gjen- nem de|fag- * re|Ri- ger paa|Jor- * den gaa|
w: føl- ge _|Slæg- ters|Gang,|al- drig for-|stum- * mer|To- nen fra|Him- * len i|
w: Sjæl til _|Sjæl det|lød:|Fred o- ver|Jor- * den!|Men- ne- ske|fryd _ dig! os|
!<(! c2 c2!<)! e2 d2 | c4!>(! B4!>)! | !fermata!A4 z4 |] %15
w: vi til Pa- ra-|dis med|Sang.|
w: Sjæ- lens gla- de|Pil- grims-|sang.|
w: er i dag en|Frel- ser|fød!|
V:2
!p! A4 A2 A2 | (F2 G2) A4 |!mf! c2 c2 c2 c2 | (B2 G2) A4 |!<(! (c2 d2)!<)! (e2 d2) | %5
w: 1.Dej- lig er|Jor- * den,|præg- tig er Guds|Him- * mel,|skjøn _ er _|
w: 2.Ti- der skal|kom- * me,|Ti- der skal hen-|rul- * le,|Slægt _ skal _|
w: 3.Eng- le- ne|sang _ den|først for Mar- kens|Hyr- * der,|skjønt _ fra _|
 B4!>(! (B2 A2)!>)! | (A2 G2) A4 | G6 z2 |!mf! c4 c2 c2 | B4 B4 | B4 A2 B2 | E4 A2 c2 | %12
w: Sjæ- le- nes|Pil- * grims-|gang!|Gjen- nem de|fag- re|Ri- ger paa|Jor- den gaa|
w: føl- ge _|Slæg- * ters|Gang,|al- drig for-|stum- mer|To- nen fra|Him- len i|
w: Sjæl til _|Sjæl _ det|lød:|Fred o- ver|Jor- den!|Men- ne- ske|fryd dig! os|
!<(! c2 c2!<)! A2 B2 | A4!>(! B4!>)! | !fermata!A4 z4 |] %15
w: vi til Pa- ra-|dis med|Sang.|
w: Sjæ- lens gla- de|Pil- grims-|sang.|
w: er i dag en|Frel- ser|fød!|
V:3
!p! E,4 D,2 C,2 | (F,2 E,2) C,4 |!mf! A,2 B,2 A,2 G,2 | (F,2 E,2) E,4 |!<(! (A,2 G,2)!<)! A,4 | %5
w: 1.Dej- lig er|Jor- * den,|præg- tig er Guds|Him- * mel,|skjøn _ er|
w: 2.Ti- der skal|kom- * me,|Ti- der skal hen-|rul- * le,|Slægt _ skal|
w: 3.Eng- le- ne|sang _ den|først for Mar- kens|Hyr- * der,|skjønt _ fra|
 G,4!>(! (G,2 F,2)!>)! | (F,2 E,2) (E,2 F,2) | G,6 z2 |!mf! G,4 F,2 F,2 | F,4 F,4 | G,4 F,2 G,2 | %11
w: Sjæ- le- nes|Pil- * grims- *|gang!|Gjen- nem de|fag- re|Ri- ger paa|
w: føl- ge _|Slæg- * ters _|Gang,|al- drig for-|stum- mer|To- nen fra|
w: Sjæl til _|Sjæl _ det _|lød:|Fred o- ver|Jor- den!|Men- ne- ske|
 A,4 A,2 A,2 |!<(! A,2 (G,F,)!<)! E,2 F,2 | (E,2 A,4) G,2 | !fermata!A,4 z4 |] %15
w: Jor- den gaa|vi til _ Pa- ra-|dis _ med|Sang.|
w: Him- len i|Sjæ- lens _ gla- de|Pil- * grims-|sang.|
w: fryd dig! os|er i _ dag en|Frel- * ser|fød!|
V:4
!p! C,4 B,,2 A,,2 | (D,2 E,2) A,,4 |!mf! A,2 G,2 F,2 E,2 | (D,2 E,2) A,,4 | %4
w: 1.Dej- lig er|Jor- * den,|præg- tig er Guds|Him- * mel,|
w: 2.Ti- der skal|kom- * me,|Ti- der skal hen-|rul- * le,|
w: 3.Eng- le- ne|sang _ den|først for Mar- kens|Hyr- * der,|
!<(! (A,,2 B,,2)!<)! (C,2 D,2) | E,4!>(! (=E,2 F,2)!>)! | B,,4 (C,2 =D,2) | E,6 z2 | %8
w: skjøn _ er _|Sjæ- le- nes|Pil- grims- *|gang!|
w: Slægt _ skal _|føl- ge _|Slæg- ters _|Gang,|
w: skjønt _ fra _|Sjæl til _|Sjæl det _|lød:|
!mf! (C,2 _B,,2) =A,,2 A,,2 | B,,4 B,,4 | E,4 E,2 E,2 | A,,4 A,2 (A,G,) | %12
w: Gjen- * nem de|fag- re|Ri- ger paa|Jor- den gaa _|
w: al- * drig for-|stum- mer|To- nen fra|Him- len i _|
w: Fred _ o- ver|Jor- den!|Men- ne- ske|fryd dig! os _|
!<(! F,2 (E,D,)!<)! C,2 D,2 | E,4!>(! E,4!>)! | !fermata!A,,4 z4 |] %15
w: vi til _ Pa- ra-|dis med|Sang.|
w: Sjæ- lens _ gla- de|Pil- grims-|sang.|
w: er i _ dag en|Frel- ser|fød!|

